packages/tokens/icons/blog2/size24Px.svg

<svg viewBox="0 0 24 24" fill="none" xmlns="http://www.w3.org/2000/svg" width="1em" height="1em"><path d="M19.5 7.5V6.06494C19.5 5.23651 18.8284 4.56494 18 4.56494L4 4.56494C3.17157 4.56494 2.5 5.23651 2.5 6.06494L2.5 19C2.5 19.8284 3.17157 20.5 4 20.5H18C18.8284 20.5 19.5 19.8284 19.5 19V16.5" stroke="currentColor" stroke-linecap="round"/><path d="M3 7.5L19.5 7.5" stroke="currentColor"/><ellipse cx="4.28572" cy="5.91293" rx="0.335404" ry="0.350797" fill="currentColor"/><ellipse cx="5.62727" cy="5.91263" rx="0.335404" ry="0.350797" fill="currentColor"/><ellipse cx="6.96895" cy="5.91263" rx="0.335404" ry="0.350797" fill="currentColor"/><path d="M5.5 10.5H15.5M5.5 13.5H12.5M5.5 16.5H8.5" stroke="currentColor" stroke-linecap="round"/><path d="M19.854 10.0607C20.0492 9.86542 20.3658 9.86542 20.5611 10.0607L21.2682 10.7678C21.4635 10.963 21.4635 11.2796 21.2682 11.4749L15.585 17.1581C15.525 17.2181 15.4507 17.2618 15.3691 17.2852L14.3782 17.569C14.0008 17.6771 13.6518 17.328 13.7599 16.9507L14.0436 15.9598L13.5663 15.8231L14.0436 15.9598C14.067 15.8782 14.1108 15.8039 14.1708 15.7439L19.854 10.0607Z" stroke="currentColor"/></svg>

<svg xmlns="http://www.w3.org/2000/svg" fill="none" viewBox="0 0 24 24" width="1em" height="1em"><path stroke="currentColor" stroke-linecap="round" d="M19.5 7.5V6.065a1.5 1.5 0 0 0-1.5-1.5H4a1.5 1.5 0 0 0-1.5 1.5V19A1.5 1.5 0 0 0 4 20.5h14a1.5 1.5 0 0 0 1.5-1.5v-2.5"/><path stroke="currentColor" d="M3 7.5h16.5"/><ellipse cx="4.286" cy="5.913" fill="currentColor" rx=".335" ry=".351"/><ellipse cx="5.627" cy="5.913" fill="currentColor" rx=".335" ry=".351"/><ellipse cx="6.969" cy="5.913" fill="currentColor" rx=".335" ry=".351"/><path stroke="currentColor" stroke-linecap="round" d="M5.5 10.5h10m-10 3h7m-7 3h3"/><path stroke="currentColor" d="M19.854 10.06a.5.5 0 0 1 .707 0l.707.708a.5.5 0 0 1 0 .707l-5.683 5.683a.5.5 0 0 1-.216.127l-.99.284a.5.5 0 0 1-.62-.618l.285-.991-.478-.137.478.137a.5.5 0 0 1 .127-.216l5.683-5.683Z"/></svg>
